widgets/eBookmark/images/btns/sync.svg

<?xml version="1.0" encoding="UTF-8"?>
<svg width="16px" height="16px" viewBox="0 0 16 16" version="1.1" xmlns="http://www.w3.org/2000/svg" xmlns:xlink="http://www.w3.org/1999/xlink">
    <!-- Generator: Sketch 48.2 (47327) - http://www.bohemiancoding.com/sketch -->
    <title>sync</title>
    <desc>Created with Sketch.</desc>
    <defs></defs>
    <g id="icons" stroke="none" stroke-width="1" fill="none" fill-rule="evenodd" transform="translate(-1282.000000, -958.000000)">
        <g id="sync" transform="translate(1282.000000, 958.000000)">
            <path d="M8,6 C3.5819248,6 0,4.65670406 0,3.0022071 C0,1.34467537 3.5819248,0 8,0 C12.4184997,0 16,1.34467537 16,3.0022071 C16,4.65670406 12.4184997,6 8,6 Z M8,4.5 C11.3138748,4.5 14,3.82835203 14,3.00110355 C14,2.17233769 11.3138748,1.5 8,1.5 C4.6864436,1.5 2,2.17233769 2,3.00110355 C2,3.82835203 4.6864436,4.5 8,4.5 Z" id="Shape" fill="#999999" fill-rule="nonzero"></path>
            <path d="M6.66671549,8.97066667 C3.28538216,8.66133333 0.800048828,7.62666667 0.800048828,6.4" id="Shape" stroke="#999999" stroke-width="1.5" stroke-linejoin="round"></path>
            <path d="M5.06671549,12.4906667 C2.52804883,12.0426667 0.800048828,11.1573333 0.800048828,10.1333333 L0.800048828,2.66666667" id="Shape" stroke="#999999" stroke-width="1.5" stroke-linejoin="round"></path>
            <path d="M15.2,3 L15.1999512,5.66666667" id="Shape" stroke="#999999" stroke-width="1.5" stroke-linejoin="round"></path>
            <circle id="Oval" stroke="#999999" stroke-width="1.5" cx="11.5" cy="11.5" r="3.75"></circle>
            <path d="M12.1795354,11.5 L12.8590709,10.8204646 C13.0469764,10.6325591 13.0469764,10.3288346 12.8590709,10.1409291 C12.6711654,9.95302363 12.3674409,9.95302363 12.1795354,10.1409291 L11.5,10.8204646 L10.8204646,10.1409291 C10.6325591,9.95302363 10.3288346,9.95302363 10.1409291,10.1409291 C9.95302363,10.3288346 9.95302363,10.6325591 10.1409291,10.8204646 L10.8204646,11.5 L10.1409291,12.1795354 C9.95302363,12.3674409 9.95302363,12.6711654 10.1409291,12.8590709 C10.2346416,12.9527833 10.3576692,12.9998799 10.4806968,12.9998799 C10.6037245,12.9998799 10.7267521,12.9527833 10.8204646,12.8590709 L11.5,12.1795354 L12.1795354,12.8590709 C12.2732479,12.9527833 12.3962755,12.9998799 12.5193032,12.9998799 C12.6423308,12.9998799 12.7653584,12.9527833 12.8590709,12.8590709 C13.0469764,12.6711654 13.0469764,12.3674409 12.8590709,12.1795354 L12.1795354,11.5 Z" id="Shape" fill="#999999" fill-rule="nonzero"></path>
        </g>
    </g>
</svg>

<svg width="16" height="16" xmlns="http://www.w3.org/2000/svg"><g fill="none" fill-rule="evenodd"><path d="M8 6C3.582 6 0 4.657 0 3.002 0 1.345 3.582 0 8 0s8 1.345 8 3.002C16 4.657 12.418 6 8 6zm0-1.5c3.314 0 6-.672 6-1.499C14 2.172 11.314 1.5 8 1.5s-6 .672-6 1.501C2 3.828 4.686 4.5 8 4.5z" fill="#999" fill-rule="nonzero"/><path d="M6.667 8.97C3.285 8.662.8 7.628.8 6.4m4.267 6.09C2.528 12.044.8 11.158.8 10.134V2.667M15.2 3v2.667" stroke="#999" stroke-width="1.5" stroke-linejoin="round"/><circle stroke="#999" stroke-width="1.5" cx="11.5" cy="11.5" r="3.75"/><path d="M12.18 11.5l.68-.68a.48.48 0 1 0-.68-.68l-.68.68-.68-.68a.48.48 0 1 0-.68.68l.68.68-.68.68a.48.48 0 1 0 .68.68l.68-.68.68.68a.48.48 0 0 0 .68 0 .48.48 0 0 0 0-.68l-.68-.68z" fill="#999" fill-rule="nonzero"/></g></svg>
